source/assets/ui/themes/light/recent.svg

<?xml version="1.0" encoding="UTF-8" standalone="no"?>
<!-- Created with Inkscape (http://www.inkscape.org/) -->

<svg
   width="24"
   height="24"
   viewBox="0 0 24 24"
   version="1.1"
   id="SVGRoot"
   xml:space="preserve"
   xmlns="http://www.w3.org/2000/svg"
   xmlns:svg="http://www.w3.org/2000/svg"
   xmlns:rdf="http://www.w3.org/1999/02/22-rdf-syntax-ns#"
   xmlns:cc="http://creativecommons.org/ns#"
   xmlns:dc="http://purl.org/dc/elements/1.1/"><defs
     id="defs1725" /><metadata
     id="metadata2103"><rdf:RDF><cc:Work
         rdf:about=""><dc:creator><cc:Agent><dc:title>NinStar</dc:title></cc:Agent></dc:creator></cc:Work></rdf:RDF></metadata><path
     id="path1434"
     style="display:inline;fill:#4f5660;fill-opacity:1;stroke:none;stroke-width:1.85322;stroke-linecap:butt;stroke-linejoin:miter;stroke-miterlimit:4;stroke-dasharray:none;stroke-dashoffset:9.6;stroke-opacity:1;paint-order:markers stroke fill"
     d="M 12.191587,4.6541001 C 11.297327,4.6734518 10.399119,4.8575395 9.5420382,5.212553 7.0282906,6.2537856 5.3185613,8.596369 5.0495954,11.265563 H 3.7 L 6.2254491,15.640111 8.750897,11.265563 H 7.0445132 C 7.3017618,9.3973863 8.5256044,7.7820143 10.302156,7.0461403 c 2.005956,-0.8308941 4.306744,-0.3718477 5.842038,1.163444 1.535292,1.535292 1.994338,3.8360827 1.163444,5.8420377 -0.830897,2.005956 -2.783488,3.310385 -4.95472,3.310385 v 1.98561 c 2.968633,0 5.652256,-1.793221 6.788307,-4.535879 C 20.277267,12.069079 19.648774,8.9032823 17.549633,6.8041443 16.106475,5.3609846 14.158959,4.6115387 12.191587,4.6541001 Z m 0.145819,4.1232442 c -0.44929,0 -0.809758,0.360468 -0.809758,0.809757 v 3.2080017 c 0,0.449289 0.360468,0.809756 0.809758,0.809756 h 3.208001 c 0.44929,0 0.809758,-0.360467 0.809758,-0.809756 0,-0.449289 -0.360468,-0.809757 -0.809758,-0.809757 H 13.147163 V 9.5871013 c 0,-0.449289 -0.360468,-0.809757 -0.809757,-0.809757 z" /></svg>

<?xml version="1.0" encoding="UTF-8"?>
<svg id="a" width="24" height="24" version="1.1" viewBox="0 0 24 24" xml:space="preserve" xmlns="http://www.w3.org/2000/svg" xmlns:cc="http://creativecommons.org/ns#" xmlns:dc="http://purl.org/dc/elements/1.1/" xmlns:rdf="http://www.w3.org/1999/02/22-rdf-syntax-ns#"><metadata><rdf:RDF><cc:Work rdf:about=""><dc:creator><cc:Agent><dc:title>NinStar</dc:title></cc:Agent></dc:creator></cc:Work></rdf:RDF></metadata><path d="m12.192 4.6541c-0.89426 0.019352-1.7925 0.20344-2.6495 0.55845-2.5137 1.0412-4.2235 3.3838-4.4924 6.053h-1.3496l2.5254 4.3745 2.5254-4.3745h-1.7064c0.25725-1.8682 1.4811-3.4835 3.2576-4.2194 2.006-0.83089 4.3067-0.37185 5.842 1.1634 1.5353 1.5353 1.9943 3.8361 1.1634 5.842-0.8309 2.006-2.7835 3.3104-4.9547 3.3104v1.9856c2.9686 0 5.6523-1.7932 6.7883-4.5359 1.136-2.7427 0.50755-5.9085-1.5916-8.0076-1.4432-1.4432-3.3907-2.1926-5.358-2.15zm0.14582 4.1232c-0.44929 0-0.80976 0.36047-0.80976 0.80976v3.208c0 0.44929 0.36047 0.80976 0.80976 0.80976h3.208c0.44929 0 0.80976-0.36047 0.80976-0.80976s-0.36047-0.80976-0.80976-0.80976h-2.3982v-2.3982c0-0.44929-0.36047-0.80976-0.80976-0.80976z" fill="#4f5660" style="paint-order:markers stroke fill"/></svg>
